school/img/country/ME.svg

<svg width="13" height="12" viewBox="0 0 13 12" fill="none" xmlns="http://www.w3.org/2000/svg">
<rect width="13" height="12" rx="2" fill="white"/>
<mask id="mask0" mask-type="alpha" maskUnits="userSpaceOnUse" x="0" y="0" width="13" height="12">
<rect width="13" height="12" rx="2" fill="white"/>
</mask>
<g mask="url(#mask0)">
<rect width="13" height="12" fill="#E6BE53"/>
<path fill-rule="evenodd" clip-rule="evenodd" d="M0.619019 10.2C0.619019 10.7523 1.06673 11.2 1.61902 11.2H11.3809C11.9332 11.2 12.3809 10.7523 12.3809 10.2V1.79999C12.3809 1.2477 11.9332 0.799988 11.3809 0.799988H1.61902C1.06673 0.799988 0.619019 1.2477 0.619019 1.79999V10.2Z" fill="#E01826"/>
<path fill-rule="evenodd" clip-rule="evenodd" d="M6.24446 2.11007C5.90353 2.25693 5.79273 2.68595 6.01991 2.97954C6.1275 3.11859 6.29341 3.19998 6.46923 3.19998H6.5308C6.70661 3.19998 6.87252 3.11859 6.98012 2.97954C7.2073 2.68595 7.0965 2.25693 6.75557 2.11007L6.73249 2.10013C6.5841 2.0362 6.41593 2.0362 6.26754 2.10013L6.24446 2.11007ZM6.80955 3.99999C6.65287 4.20247 6.34718 4.20247 6.1905 3.99999L5.77785 3.46672C5.66113 3.31589 5.44837 3.27952 5.28817 3.38303C5.10753 3.49975 5.06543 3.74605 5.19705 3.91615L5.26193 3.99999L5.65069 4.50239C5.79361 4.68709 5.82947 4.93312 5.74519 5.15093L5.58477 5.56557C5.57597 5.58832 5.57145 5.6125 5.57145 5.6369C5.57145 5.7935 5.39802 5.88793 5.26648 5.80293L5.18278 5.74885C5.05884 5.66876 5.02995 5.49977 5.12026 5.38306L5.13333 5.36617C5.20905 5.26832 5.20905 5.13166 5.13333 5.0338L5.00145 4.86338C4.96893 4.82134 4.94266 4.77481 4.92348 4.72524L4.66191 4.04918C4.64925 4.01645 4.63953 3.98266 4.63286 3.9482C4.52914 3.41206 3.81593 3.29156 3.54182 3.76386L3.48985 3.85342C3.43413 3.94942 3.40479 4.05845 3.40479 4.16945V5.47552C3.40479 5.55779 3.42001 5.63935 3.4497 5.71607L3.67926 6.30939C3.7025 6.36947 3.73433 6.42587 3.77376 6.47682L4.26362 7.10987C4.30978 7.16952 4.36572 7.2209 4.42906 7.26183L4.91079 7.5731C4.93795 7.59065 4.96961 7.59999 5.00195 7.59999C5.16941 7.59999 5.23377 7.81818 5.09312 7.90906L4.98212 7.98079C4.96245 7.9935 4.94508 8.00945 4.93076 8.02796L4.79764 8.19999C4.7193 8.30123 4.56646 8.30123 4.48812 8.19999C4.40978 8.09875 4.25693 8.09875 4.17859 8.19999L4.11793 8.27839C4.05953 8.35386 4.04488 8.45439 4.07931 8.54338L4.17719 8.79637C4.27131 9.03962 4.5053 9.19999 4.76614 9.19999C4.88772 9.19999 5.00673 9.16489 5.10885 9.0989L5.45985 8.8721C5.53239 8.82523 5.58823 8.75661 5.6194 8.67607L5.74676 8.34689C5.80573 8.19446 6.00859 8.1649 6.10861 8.29416C6.15856 8.35872 6.16657 8.44637 6.12915 8.51891L5.81258 9.13257C5.67118 9.40667 5.73625 9.74197 5.96992 9.94328L6.06488 10.0251C6.31497 10.2406 6.68508 10.2406 6.93516 10.0251L7.03013 9.94328C7.26379 9.74197 7.32886 9.40667 7.18746 9.13257L6.87089 8.51891C6.83347 8.44637 6.84148 8.35872 6.89144 8.29416C6.99146 8.1649 7.19431 8.19446 7.25329 8.34689L7.38065 8.67607C7.41181 8.75661 7.46766 8.82523 7.54019 8.8721L7.89119 9.0989C7.99332 9.16489 8.11232 9.19999 8.23391 9.19999C8.49474 9.19999 8.72873 9.03962 8.82285 8.79637L8.92073 8.54338C8.95517 8.45438 8.94052 8.35386 8.88212 8.27839L8.82145 8.19999C8.74311 8.09875 8.59027 8.09875 8.51193 8.19999C8.43359 8.30123 8.28074 8.30123 8.2024 8.19999L8.06929 8.02796C8.05496 8.00945 8.03759 7.9935 8.01793 7.98079L7.90692 7.90906C7.76628 7.81818 7.83064 7.59999 7.99809 7.59999C8.03044 7.59999 8.06209 7.59065 8.08926 7.5731L8.57098 7.26183C8.63433 7.2209 8.69027 7.16952 8.73642 7.10987L9.22628 6.47682C9.26571 6.42587 9.29754 6.36947 9.32079 6.30939L9.55035 5.71607C9.58003 5.63935 9.59526 5.55779 9.59526 5.47552V4.16945C9.59526 4.05845 9.56591 3.94942 9.5102 3.85342L9.45822 3.76386C9.18412 3.29156 8.4709 3.41206 8.36718 3.9482C8.36052 3.98266 8.3508 4.01645 8.33813 4.04918L8.07656 4.72524C8.05738 4.77481 8.03112 4.82134 7.99859 4.86338L7.86671 5.0338C7.79099 5.13166 7.79099 5.26832 7.86671 5.36617L7.87978 5.38306C7.97009 5.49977 7.94121 5.66876 7.81726 5.74885L7.73356 5.80293C7.60202 5.88793 7.42859 5.7935 7.42859 5.6369C7.42859 5.6125 7.42408 5.58832 7.41528 5.56557L7.25485 5.15093C7.17058 4.93312 7.20643 4.68709 7.34936 4.50239L7.73812 3.99999L7.80299 3.91615C7.93461 3.74605 7.89252 3.49975 7.71187 3.38303C7.55168 3.27952 7.33891 3.31589 7.22219 3.46672L6.80955 3.99999Z" fill="#E6BE53"/>
<path fill-rule="evenodd" clip-rule="evenodd" d="M5.88098 6.80001C5.88098 6.91927 6.0908 6.95255 6.13901 6.84346C6.2449 6.60382 6.37247 6.40001 6.50003 6.40001C6.62759 6.40001 6.75516 6.60382 6.86105 6.84346C6.90926 6.95255 7.11908 6.91927 7.11908 6.80001V6.80001C7.11908 6.13726 6.84192 5.60001 6.50003 5.60001C6.15814 5.60001 5.88098 6.13726 5.88098 6.80001V6.80001Z" fill="#215F90"/>
</g>
</svg>

<svg width="13" height="12" fill="none" xmlns="http://www.w3.org/2000/svg"><rect width="13" height="12" rx="2" fill="#fff"/><mask id="a" maskUnits="userSpaceOnUse" x="0" y="0" width="13" height="12"><rect width="13" height="12" rx="2" fill="#fff"/></mask><g mask="url(#a)"><path fill="#E6BE53" d="M0 0h13v12H0z"/><path fill-rule="evenodd" clip-rule="evenodd" d="M.619 10.2a1 1 0 001 1h9.762a1 1 0 001-1V1.8a1 1 0 00-1-1H1.619a1 1 0 00-1 1v8.4z" fill="#E01826"/><path fill-rule="evenodd" clip-rule="evenodd" d="M6.244 2.11A.568.568 0 006.47 3.2h.062a.568.568 0 00.225-1.09l-.024-.01a.588.588 0 00-.464 0l-.024.01zM6.81 4a.391.391 0 01-.62 0l-.412-.533a.367.367 0 00-.58.45L5.261 4l.389.502a.668.668 0 01.094.649l-.16.415a.198.198 0 00-.014.07.198.198 0 01-.305.167l-.083-.054a.252.252 0 01-.063-.366l.013-.017a.272.272 0 000-.332L5 4.864a.55.55 0 01-.078-.139l-.261-.676a.591.591 0 01-.03-.1.59.59 0 00-1.09-.185l-.052.09a.63.63 0 00-.085.315v1.307a.66.66 0 00.045.24l.23.593c.022.06.054.117.094.168l.49.633c.046.06.102.11.165.152l.482.311a.168.168 0 00.091.027c.167 0 .232.218.091.31l-.11.07a.207.207 0 00-.052.048l-.133.172a.196.196 0 01-.31 0 .196.196 0 00-.31 0l-.06.078a.272.272 0 00-.039.265l.098.253a.632.632 0 00.932.303l.35-.227a.41.41 0 00.16-.196l.128-.33a.21.21 0 11.382.173l-.316.614a.667.667 0 00.157.81l.095.082c.25.216.62.216.87 0l.095-.082a.667.667 0 00.157-.81l-.316-.614a.21.21 0 11.382-.172l.128.33a.41.41 0 00.16.195l.35.227a.631.631 0 00.932-.303l.098-.253a.272.272 0 00-.039-.265l-.06-.078a.196.196 0 00-.31 0 .196.196 0 01-.31 0l-.133-.172a.207.207 0 00-.051-.047l-.111-.072c-.14-.09-.076-.309.091-.309.032 0 .064-.01.091-.027l.482-.311a.666.666 0 00.165-.152l.49-.633a.667.667 0 00.095-.168l.23-.593a.667.667 0 00.044-.24V4.169a.63.63 0 00-.085-.316l-.052-.09a.59.59 0 00-1.09.185.59.59 0 01-.03.101l-.261.676a.55.55 0 01-.078.138l-.132.17a.272.272 0 000 .333l.013.017a.252.252 0 01-.063.366l-.083.054a.198.198 0 01-.305-.166.198.198 0 00-.014-.071l-.16-.415a.667.667 0 01.094-.649L7.74 4l.064-.084a.367.367 0 10-.58-.45L6.81 4z" fill="#E6BE53"/><path fill-rule="evenodd" clip-rule="evenodd" d="M5.881 6.8c0 .12.21.153.258.043.106-.24.233-.443.361-.443.128 0 .255.204.361.443.048.11.258.076.258-.043 0-.663-.277-1.2-.619-1.2-.342 0-.619.537-.619 1.2z" fill="#215F90"/></g></svg>
